layouts/icon-pack/armor_shield_light.svg

<?xml version="1.0" encoding="UTF-8"?>
<svg width="1200pt" height="1200pt" version="1.1" viewBox="0 0 1200 1200" xmlns="http://www.w3.org/2000/svg">
 <g fill="#fff">
  <path d="m600 276c-178.64 0-324 145.31-324 324s145.31 324 324 324 324-145.31 324-324-145.36-324-324-324zm0 467.93c-38.172 0-74.781-15.164-101.77-42.156-26.992-26.992-42.156-63.602-42.156-101.77s15.164-74.781 42.156-101.77c26.992-26.992 63.602-42.156 101.77-42.156s74.781 15.164 101.77 42.156c26.992 26.992 42.156 63.602 42.156 101.77-0.007813 38.172-15.172 74.777-42.164 101.77-26.988 26.992-63.594 42.156-101.77 42.164z"/>
  <path d="m600 69.188c-293.16 0-530.81 237.66-530.81 530.81s237.66 530.81 530.81 530.81 530.81-237.66 530.81-530.81-237.66-530.81-530.81-530.81zm-431.25 536.04c-0.30859 1.4922-0.75781 2.9492-1.3359 4.3594-0.57031 1.3984-1.2852 2.7344-2.1328 3.9844-0.85156 1.2734-1.8164 2.4648-2.8828 3.5625-4.3672 4.3281-10.258 6.7695-16.406 6.7969-1.5273-0.007813-3.0469-0.15625-4.5469-0.44531-1.4961-0.29688-2.9531-0.74609-4.3594-1.3359-1.4141-0.57031-2.7656-1.2852-4.0312-2.1328-1.25-0.86328-2.4258-1.8281-3.5156-2.8828-1.1133-1.082-2.1094-2.2734-2.9766-3.5625-0.84766-1.25-1.5625-2.5859-2.1328-3.9844-1.7695-4.2539-2.2344-8.9336-1.3359-13.453 0.30078-1.4922 0.75-2.9531 1.3359-4.3594 0.57031-1.4141 1.2852-2.7656 2.1328-4.0312 1.668-2.5625 3.8242-4.7695 6.3516-6.4922 1.2656-0.84766 2.6172-1.5625 4.0312-2.1328 1.4102-0.57813 2.8672-1.0273 4.3594-1.3359 7.6484-1.5234 15.559 0.85547 21.094 6.3516 1.0547 1.0898 2.0195 2.2656 2.8828 3.5156 0.84766 1.2656 1.5625 2.6172 2.1328 4.0312 0.58203 1.4062 1.0312 2.8672 1.3359 4.3594 0.625 3 0.625 6.0938 0 9.0938zm408.45-463.22c0.29297-1.4922 0.73047-2.9531 1.3125-4.3594 0.59375-1.4062 1.3125-2.7578 2.1562-4.0312 0.84375-1.2812 1.8281-2.4688 2.9297-3.5391 5.5039-5.4492 13.348-7.8281 20.953-6.3516 1.4922 0.30078 2.9492 0.74219 4.3594 1.3125 1.4023 0.59766 2.75 1.3125 4.0312 2.1328 6.4336 4.3359 10.305 11.578 10.336 19.336 0.003906 1.5352-0.14453 3.0664-0.44531 4.5703-0.29297 1.4844-0.73438 2.9375-1.3125 4.3359-0.59375 1.4102-1.3242 2.7617-2.1797 4.0312-0.82031 1.2773-1.7891 2.4609-2.8828 3.5156-1.0625 1.0938-2.2422 2.0703-3.5156 2.9062-1.2773 0.83594-2.625 1.5586-4.0312 2.1562-1.4062 0.58203-2.8672 1.0195-4.3594 1.3125-1.4805 0.30078-2.9883 0.44922-4.5 0.44531-6.1562-0.007812-12.059-2.4609-16.406-6.8203-1.0938-1.0625-2.0703-2.2422-2.9062-3.5156-0.83594-1.2773-1.5586-2.625-2.1562-4.0312-1.1602-2.8281-1.7656-5.8516-1.7812-8.9062-0.019531-1.5078 0.11719-3.0156 0.39844-4.5zm45.609 917.37c-0.29297 1.4922-0.73047 2.9531-1.3125 4.3594-0.59375 1.4102-1.3242 2.7617-2.1797 4.0312-0.82031 1.2773-1.7891 2.4609-2.8828 3.5156-4.3438 4.3672-10.246 6.832-16.406 6.8438-1.5352-0.003906-3.0664-0.16016-4.5703-0.46875-1.4883-0.29297-2.9414-0.73828-4.3359-1.3359-1.4141-0.57812-2.7656-1.3008-4.0312-2.1562-1.2773-0.82031-2.4609-1.7891-3.5156-2.8828-4.3633-4.3477-6.8242-10.246-6.8438-16.406 0.003907-1.5352 0.16016-3.0664 0.46875-4.5703 0.28516-1.4883 0.72266-2.9414 1.3125-4.3359 0.59375-1.4023 1.3086-2.75 2.1328-4.0312 1.707-2.5508 3.8945-4.7383 6.4453-6.4453 1.2812-0.82031 2.6289-1.5352 4.0312-2.1328 1.4023-0.57422 2.8516-1.0234 4.3359-1.3359 2.9961-0.58594 6.0742-0.58594 9.0703 0 1.4922 0.30859 2.9492 0.75781 4.3594 1.3359 1.4023 0.59375 2.75 1.3086 4.0312 2.1328 1.2461 0.82422 2.4141 1.7578 3.4922 2.7891 1.082 1.082 2.0508 2.2773 2.8828 3.5625 2.5781 3.8203 3.9492 8.3281 3.9375 12.938 0.015626 1.543-0.125 3.082-0.42187 4.5938zm-22.805-88.852c-204.3 0-370.52-166.22-370.52-370.52s166.22-370.52 370.52-370.52 370.52 166.22 370.52 370.52-166.22 370.52-370.52 370.52zm437.7-386.3c2.1562-2.1602 4.7227-3.8672 7.5469-5.0156 1.4062-0.58594 2.8672-1.0352 4.3594-1.3359 3-0.63281 6.0938-0.63281 9.0938 0 1.4922 0.30078 2.9531 0.75 4.3594 1.3359 1.4062 0.57031 2.75 1.2852 4.0078 2.1328 1.2734 0.84375 2.457 1.8086 3.5391 2.8828 1.0703 1.0781 2.0352 2.2578 2.8828 3.5156 0.83984 1.2734 1.5547 2.6211 2.1328 4.0312 0.58594 1.4023 1.0273 2.8633 1.3125 4.3594 0.89453 4.5156 0.4375 9.1953-1.3125 13.453-0.57813 1.3945-1.293 2.7305-2.1328 3.9844-0.83594 1.2852-1.8008 2.4766-2.8828 3.5625-1.0938 1.0625-2.2773 2.0273-3.5391 2.8828-2.5391 1.6836-5.3828 2.8594-8.3672 3.4688-3.0039 0.59375-6.0898 0.59375-9.0938 0-1.4961-0.29297-2.957-0.73828-4.3594-1.3359-1.4141-0.57031-2.7656-1.2852-4.0312-2.1328-1.2578-0.85156-2.4336-1.8164-3.5156-2.8828-1.082-1.0859-2.0469-2.2773-2.8828-3.5625-0.84766-1.25-1.5625-2.5859-2.1328-3.9844-1.1758-2.8242-1.7891-5.8477-1.8047-8.9062 0.019531-6.168 2.4688-12.078 6.8203-16.453z"/>
 </g>
</svg>

<?xml version="1.0" encoding="UTF-8" standalone="no"?>
<!DOCTYPE svg PUBLIC "-//W3C//DTD SVG 1.1//EN" "http://www.w3.org/Graphics/SVG/1.1/DTD/svg11.dtd">
<svg width="100%" height="100%" viewBox="0 0 512 512" version="1.1" xmlns="http://www.w3.org/2000/svg" xmlns:xlink="http://www.w3.org/1999/xlink" xml:space="preserve" xmlns:serif="http://www.serif.com/" style="fill-rule:evenodd;clip-rule:evenodd;stroke-linejoin:round;stroke-miterlimit:2;">
    <g transform="matrix(1,0,0,1,-69.19,-69.188)">
        <g transform="matrix(0.482282,0,0,0.482282,35.8209,35.8199)">
            <path d="M600,276C421.36,276 276,421.31 276,600C276,778.69 421.31,924 600,924C778.69,924 924,778.69 924,600C924,421.31 778.64,276 600,276ZM600,743.93C561.828,743.93 525.219,728.766 498.23,701.774C471.238,674.782 456.074,638.172 456.074,600.004C456.074,561.836 471.238,525.223 498.23,498.234C525.222,471.242 561.832,456.078 600,456.078C638.168,456.078 674.781,471.242 701.77,498.234C728.762,525.226 743.926,561.836 743.926,600.004C743.918,638.176 728.754,674.781 701.762,701.774C674.774,728.766 638.168,743.93 599.992,743.938L600,743.93Z" style="fill:white;fill-rule:nonzero;"/>
            <path d="M600,69.188C306.84,69.188 69.19,306.848 69.19,599.998C69.19,893.148 306.85,1130.81 600,1130.81C893.15,1130.81 1130.81,893.148 1130.81,599.998C1130.81,306.848 893.15,69.188 600,69.188ZM168.75,605.228C168.441,606.72 167.992,608.177 167.414,609.587C166.844,610.986 166.129,612.322 165.281,613.572C164.43,614.845 163.465,616.037 162.398,617.134C158.031,621.462 152.14,623.904 145.992,623.931C144.465,623.923 142.946,623.775 141.446,623.486C139.949,623.189 138.492,622.74 137.086,622.15C135.672,621.58 134.321,620.865 133.055,620.017C131.805,619.154 130.629,618.189 129.539,617.134C128.426,616.052 127.43,614.861 126.563,613.572C125.715,612.322 125,610.986 124.43,609.587C122.66,605.334 122.196,600.654 123.094,596.134C123.395,594.642 123.844,593.181 124.43,591.775C125,590.361 125.715,589.009 126.563,587.744C128.231,585.181 130.387,582.974 132.914,581.252C134.18,580.404 135.532,579.689 136.946,579.119C138.356,578.541 139.813,578.092 141.305,577.783C148.953,576.26 156.864,578.638 162.399,584.135C163.454,585.224 164.418,586.4 165.282,587.65C166.129,588.916 166.844,590.267 167.415,591.681C167.997,593.088 168.446,594.549 168.75,596.041C169.375,599.041 169.375,602.135 168.75,605.135L168.75,605.228ZM577.2,142.008C577.493,140.516 577.93,139.055 578.513,137.649C579.106,136.242 579.825,134.891 580.669,133.617C581.512,132.336 582.497,131.149 583.598,130.078C589.102,124.629 596.946,122.25 604.551,123.727C606.044,124.027 607.501,124.469 608.911,125.039C610.313,125.637 611.661,126.352 612.942,127.172C619.376,131.508 623.247,138.75 623.278,146.508C623.282,148.043 623.133,149.574 622.833,151.078C622.54,152.563 622.098,154.016 621.52,155.414C620.926,156.824 620.196,158.176 619.34,159.445C618.52,160.723 617.551,161.906 616.458,162.961C615.395,164.055 614.215,165.031 612.942,165.867C611.665,166.703 610.317,167.426 608.911,168.023C607.505,168.605 606.044,169.043 604.551,169.336C603.071,169.637 601.563,169.785 600.051,169.781C593.895,169.773 587.992,167.32 583.645,162.961C582.552,161.898 581.575,160.719 580.739,159.445C579.903,158.168 579.181,156.82 578.583,155.414C577.423,152.586 576.817,149.563 576.802,146.508C576.782,145 576.919,143.492 577.2,142.008L577.2,142.008ZM622.809,1059.38C622.516,1060.87 622.079,1062.33 621.497,1063.74C620.903,1065.15 620.172,1066.5 619.317,1067.77C618.496,1069.05 617.528,1070.23 616.434,1071.28C612.09,1075.65 606.188,1078.12 600.028,1078.13C598.493,1078.12 596.962,1077.97 595.458,1077.66C593.969,1077.37 592.516,1076.92 591.122,1076.32C589.708,1075.75 588.356,1075.02 587.091,1074.17C585.813,1073.35 584.63,1072.38 583.575,1071.28C579.212,1066.94 576.751,1061.04 576.731,1054.88C576.735,1053.34 576.891,1051.81 577.2,1050.31C577.485,1048.82 577.923,1047.37 578.512,1045.97C579.106,1044.57 579.821,1043.22 580.645,1041.94C582.352,1039.39 584.54,1037.2 587.091,1035.5C588.372,1034.67 589.719,1033.96 591.122,1033.36C592.524,1032.79 593.973,1032.34 595.458,1032.03C598.454,1031.44 601.532,1031.44 604.528,1032.03C606.02,1032.34 607.477,1032.79 608.887,1033.36C610.29,1033.96 611.637,1034.67 612.919,1035.5C614.165,1036.32 615.333,1037.25 616.411,1038.29C617.493,1039.37 618.462,1040.56 619.294,1041.85C621.872,1045.67 623.243,1050.17 623.231,1054.79C623.247,1056.33 623.106,1057.87 622.809,1059.38L622.809,1059.38ZM600.004,970.526C395.704,970.526 229.484,804.306 229.484,600.006C229.484,395.706 395.704,229.486 600.004,229.486C804.304,229.486 970.524,395.706 970.524,600.006C970.524,804.306 804.304,970.526 600.004,970.526ZM1037.7,584.226C1039.86,582.066 1042.43,580.359 1045.25,579.21C1046.66,578.624 1048.12,578.175 1049.61,577.874C1052.61,577.242 1055.7,577.242 1058.7,577.874C1060.2,578.175 1061.66,578.624 1063.06,579.21C1064.47,579.781 1065.81,580.496 1067.07,581.343C1068.35,582.187 1069.53,583.152 1070.61,584.226C1071.68,585.304 1072.65,586.484 1073.49,587.742C1074.33,589.015 1075.05,590.363 1075.63,591.773C1076.21,593.175 1076.65,594.636 1076.94,596.132C1077.83,600.648 1077.38,605.327 1075.63,609.585C1075.05,610.98 1074.33,612.316 1073.49,613.57C1072.66,614.855 1071.69,616.046 1070.61,617.132C1069.52,618.195 1068.33,619.159 1067.07,620.015C1064.53,621.698 1061.69,622.874 1058.7,623.484C1055.7,624.077 1052.61,624.077 1049.61,623.484C1048.11,623.191 1046.65,622.745 1045.25,622.148C1043.84,621.577 1042.49,620.863 1041.22,620.015C1039.96,619.163 1038.79,618.199 1037.7,617.132C1036.62,616.046 1035.66,614.855 1034.82,613.57C1033.97,612.32 1033.26,610.984 1032.69,609.585C1031.51,606.761 1030.9,603.738 1030.88,600.679C1030.9,594.511 1033.35,588.601 1037.7,584.226L1037.7,584.226Z" style="fill:white;fill-rule:nonzero;"/>
        </g>
    </g>
</svg>
